X:1
T:Lady Charlotte Campbell
T:Lady Charlotte Campbell
T:Robert Mackintosh
C:Robert Mackintosh
L:1/8
Q:1/8=128
M:4/4
K:Bb
V:1 treble 
V:1
|: F/E/ | D<F F>B E<G G>B | A<c f>e d<b B<f | D<F F>B E<G G>B | A/B/c/A/ F>e d<B BF/E/ | %5
 D<F F>B E<G G>B | A<c f>e d<b B<f | D<F F>B E<G G>B | A/B/c/A/ F>e d<B Ba | b>B A>a g>G F>f | %10
 e>c e/d/c/B/ A<c c>a | b>B a>B g>B f>B | A/B/c/A/ F>e d<B B>a | b>B A>a g>G F>f | %14
 e>c e/d/c/B/ A<c c3/2B/4A/4 | G>B F>B E>B D>B | E/F/G F>E D<B, B, :| %17

